X: 1
T: Rumgally
C: Sheena Sturrock
R: strathspey, march
B: Anselm Lingnau "The Strathspey Anniversary Collection" 2011-5-11
Z: 2020 John Chambers <jc:trillian.mit.edu>
S: Written for the dance ".strathspey Strathspey".
M: C
L: 1/8
K: A
E2 |\
"A"e2 e>f "E"ed cB | "A"A2 A>B c2 A2 | "D"f>g af "A"ec BA | "Bm"fe dc "E"B2 E2 |\
"A"e2 e>f "E"ed c>B | "D"A2 A>F "A"E2 E2 | "D"FG Ad "A/E"ce "E7"dB | "A"c2 A2 A2 ||
c2 |\
"D"d2 de f2 ed | "A"e2 c2 A2 e2 | "D"f>e dc B2 cA | "Bm"F6 "E7"G2 |\
"A"A2 A2 a2 ef | "E"g2 B2 e2 g2 | "B"f2 fe ^d2 f2 | "E"e6 ||
dc |\
"E7"d2 de f2 d2 | "A"c2 cd e2 c2 | "Bm"d2 c2 B2 A2 | "Bm"F6 "E7"G2 |\
"A"A2 A2 c2 de | "D"f2 d2 a2 gf | "A"e2 E2 "E7"cd B2 | "A"A6 ||
E2 |\
"A"e2 e>f "E"ed cB | "A"A2 A2 a2 e2 | "D"f2 ga "A/C#"e2 c2 | "Bm"dc BA "E"B2 cB |\
"A"A2 cB A2 e2 | "D"fe fg a2 gf | "A"e2 a2 "E7"e>d cB | "A"c2 A2 A2 |]
